X:36
T:Three Hornpipes #3
R:hornpipe
C:Traditional
D:"Chasing the bear" by Jon Hicks
Z:Transcribed by Lionel Gueganton
L:1/8
M:4/4
K:G
|: ba gb dg b/b/b    | ba ge' e'd' c'b | ag fa d/e/f ad  | fd ga bc' d'2   
|  ba gb dg b/b/b    | ba ge' e'd' c'b | ag fa d/e/f ad  | fd g/g/g b2 g2 :|
|: g=f e/e/e ef gf   | ed d/e/e cd B2  | ag fa d/e/f ad  | fa ga bc' d'2   
|  g=f e/e/e ef gf   | ed d/e/e cd B2  | ag fa d/e/f ad  | fd g/g/g b2 g2 :|
|: [dd]d d/d/d df ec | dc Ad cA GE     | FF AF G2 cd     | e2 ed cA Gc
|  Ad dd fA eA       | dc Ad cA Gc     | Af ec dc Ad     |1 cA GE D3c     :|2 cA GE D4

